X:171
T:A la clarté qui tout enlumina
C:Manuscript de Montpellier (XIIIe siècle)
R:Motet
M:3/4
L:1/8
Q:1/4=176
K:G 
V:1
% Staff
d2e2f2 | g2g2g2 | gfe2d2 | f2d2B2 | 
c2B2 (3cBA | B2z4 | d2e2f2 | g2g2g2 | 
g2f ed2 | f2d2B2 | c2B2A2 | G2z4 | 
BAG2F2 | A2A2B2 | c2B AG2 | B2z4 | 
BAG2F2 | A2A2B2 | c2A2B2 | G2z4 | 
d2d ef2 | g2g fe2 | fgf ed2 | B2z4 | 
c2c BA2 | B2B AG2 | B2c2d2 | d2z4 | 
g2e2g2 | f2e2d2 | e2f2d2 | d2z4 | 
g2g2f2 | e2d2B2 | c2B AG2 | B2z4 | 
g2g2f2 | e2d2B2 | c2A2Bc | d6 |]
V:2
% Staff-1
G,6 | G,2z4 | G,2G,4 | B,2z4 | 
G,6 | B,2z4 | B,2A,4 | G,2z4 | 
G,6 | B,2z4 | A,2B,4 | D2z4 | 
D6 | E2z4 | C2D4 | B,2z4 | 
D6 | E2z4 | G2G4 | D2z4 | 
G,6 | G,2z4 | G,2G,4 | B,2z4 | 
G,6 | B,2z4 | B,2A,4 | G,2z4 | 
G,6 | B,2z4 | A,2B,4 | D2z4 | 
D6 | E2z4 | C2D4 | B,2z4 | 
D6 | E2z4 | G2G4 | D6 |]





